!!! OTL: Literature135
!!! Chapter: 5
!!! Section: IV
!!! Page: 376
!!! Mode: 
!!! Encoder: DJB
**kern
*staff1
*I"Piano
=1-
*clefG2
*k[f#]
*e:
*M4/4
4r
4r
4r
8r
8b\
=2
8a#/L
8f#/
8an/
8g#/J
4e/
8gn/L
8f#/J
=3
8c#/L
8f#/
8cn/
8f#/J
4e/
8r
8b\
=4
8a#/L
8f#/
8an/
8g#/J
4e/
8gn/L
8f#/J
=5
8c#/L
8f#/
8cn/
8f#/J
4e/
8r
8g/
=6
!!linebreak:original
8g/L
8g/J
8.b-/L
16a/Jk
8a/L
8g/J
8r
8g/
=7
12a/L
12g#/
12a/J
8cc\L
8b-\J
4gn/
4r
=8
16r
16b/LL
16a#/
16b/JJ
8.dd\L
16cc#\Jk
8cc#\L
8b\J
8r
8b\
=9
12cc#\L
12ccn\
12cc#\J
8ee\L
8dd\J
[2b\
=10
4b\]
4r
4r
8r
8b\
=11
!!linebreak:original
8a#/L
8f#/
8an/
8g#/J
4e/
8gn/L
8f#/J
=12
8c#/L
8f#/
8cn/
8f#/J
4e/
4r
==
*-
